X:1
T:Title
%%score { ( 1 4 ) | ( 2 3 ) }
L:1/8
M:4/4
K:Db
V:1 treble nm="Grand Piano"
V:4 treble 
V:2 bass 
V:3 bass 
V:1
 z4 z2[Q:1/4=100] A2 | d2 D>E F2 E>D | A2 F>F [CEA]2 [EA]2 | [DFA]2 [Fd]>[Fd] c2 B>B |[M:3/4] A6 | %5
[M:1/4] A2 |[M:4/4] [FA]2 [DF]>[EG] [FA]2 [Fd]>[Fe] | [Gd]2 c>_c =c2 B2 | A2 F>A [EG]2 [CE]>[EG] | %9
[M:3/4] F6 |[M:1/4] A>B |[M:4/4] [DFA]2 A,2 A,2 A>=G | z2 [Fd]4[K:bass][K:treble] z2 | %13
 [Gd]2 z2 E2 B>c |[M:3/4] z2 [FA]4 |[M:1/4] f>g |[M:4/4] z2 [Fd]4[K:bass][K:treble] z2 | z2 B4 z2 | %18
 A2 d2 [Gd]2 [Gc]2 |[M:3/4] [Fd]6 |] %20
V:2
 z4 z2 A,2 | D2 D,>E, F,2 E,>D, | G8 | D,2 [D,A,]>[D,A,] [E,A,E]2[K:treble] [=G,DE]>[G,DE] | %4
[M:3/4] [A,CE]6 |[M:1/4] [A,CG]2 |[M:4/4][K:bass] [D,D]2 [D,A,]>[D,A,] [D,D]2 [D,A,]>[D,A,] | %7
 [E,A,]2[K:treble] [A,EG]>[A,=DG] [A,EG]2 [A,CG]2 | %8
 [A,DF]2 [A,D]>[A,F][K:bass] [A,,A,]2 [A,,A,]>[A,,A,] |[M:3/4] [D,A,D]6 |[M:1/4][K:treble] F>G | %11
[M:4/4][K:bass] D,2 D,2 D,2[K:treble] F>_F | D,2 [D,A,]2 z2 [D,A,]2 | z4 z2[K:treble] G2 | %14
[M:3/4][K:bass] D,2 D,2 D,2 |[M:1/4][K:treble] A>B | %16
[M:4/4][K:bass] [D,D]2 [D,A,]2 z2 z z/[K:treble] A/ | [G,B,G]2 G2- [G,G]2 [G,DG]>[G,DG] | %18
 [A,DF]2 [A,F]2[K:bass] [A,,A,]2 [A,,A,]2 |[M:3/4] [D,A,]6 |] %20
V:3
 x8 | x8 | A,2 [D,D]>[D,D] A,,2 A,,2 | x6[K:treble] x2 |[M:3/4] x6 |[M:1/4] x2 | %6
[M:4/4][K:bass] x8 | x2[K:treble] x6 | x4[K:bass] x4 |[M:3/4] x6 |[M:1/4][K:treble] x2 | %11
[M:4/4][K:bass] x6[K:treble] x2 | x8 | [E,A,]2 [E,A,]2 A,2[K:treble] [A,C]->[A,CG] | %14
[M:3/4][K:bass] x6 |[M:1/4][K:treble] x2 |[M:4/4][K:bass] z4 z2 [F,_C]2[K:treble] | z2 [G,D]2 z4 | %18
 x4[K:bass] x4 |[M:3/4] x6 |] %20
V:4
 x8 | x8 | x8 | x8 |[M:3/4] x6 |[M:1/4] x2 |[M:4/4] x8 | x8 | x8 |[M:3/4] x6 |[M:1/4] x2 | %11
[M:4/4] z2 [DF]4 z2 | [DFA]2 z2[K:bass] [D,A,]2[K:treble] [Fd]>[Fe] | z2 [Gc]4 z2 | %14
[M:3/4] [DFB]2 D2 D2 |[M:1/4] x2 |[M:4/4] [Af]2 z2[K:bass] [D,A,]2[K:treble] [Ad]>c | %17
 d2 z2 D2 B>B | x8 |[M:3/4] x6 |] %20

